packages/core/src/svgs/tokens/branded/IBIT.svg

<svg width="24" height="24" viewBox="0 0 24 24" fill="none" xmlns="http://www.w3.org/2000/svg">
<path d="M6.0002 7.4283C6.94685 7.4283 7.71425 6.66088 7.71425 5.71424C7.71425 4.76759 6.94685 4.00018 6.0002 4.00018C5.05355 4.00018 4.28613 4.76759 4.28613 5.71424C4.28613 6.66088 5.05355 7.4283 6.0002 7.4283Z" fill="#4A9EDC"/>
<path d="M6.00015 6.58843C6.48294 6.58843 6.87432 6.19704 6.87432 5.71425C6.87432 5.23146 6.48294 4.84009 6.00015 4.84009C5.51736 4.84009 5.12598 5.23146 5.12598 5.71425C5.12598 6.19704 5.51736 6.58843 6.00015 6.58843Z" fill="#3C7DC8"/>
<path d="M20.284 14.2846C20.9151 14.2846 21.4267 13.7729 21.4267 13.1418C21.4267 12.5107 20.9151 11.9992 20.284 11.9992C19.6529 11.9992 19.1414 12.5107 19.1414 13.1418C19.1414 13.7729 19.6529 14.2846 20.284 14.2846Z" fill="#E93536"/>
<path d="M20.2841 13.7247C20.606 13.7247 20.8669 13.4638 20.8669 13.1418C20.8669 12.82 20.606 12.5591 20.2841 12.5591C19.9623 12.5591 19.7014 12.82 19.7014 13.1418C19.7014 13.4638 19.9623 13.7247 20.2841 13.7247Z" fill="#DC1755"/>
<path d="M5.31456 7.89683C0.538063 8.86241 1.95501 13.936 3.2577 16.3528C2.84632 13.1361 4.08615 10.8278 5.86878 10.6621C7.65712 10.5021 8.92551 11.5763 12.2566 14.8902C15.5874 18.2041 17.4787 18.8553 19.2614 18.7925C21.0497 18.7297 21.7353 18.0498 21.6038 16.8728C21.4896 15.9357 19.7869 16.1357 18.9527 16.3586C19.3413 16.3586 20.164 16.5243 20.324 17.1985C20.4955 17.8784 19.6841 18.0441 19.2614 18.0441C16.7588 17.6555 14.5933 14.9245 11.1252 11.1193C8.34845 8.07394 6.41728 7.67971 5.32028 7.89683H5.31456Z" fill="url(#paint0_linear_364_9076)"/>
<path d="M20.3755 18.6383C17.8044 18.4669 16.4274 17.4385 15.1533 16.4843C14.9305 16.3129 14.7134 16.1529 14.4906 15.9986C14.0564 15.6902 13.4565 15.033 12.7366 14.2446C10.7596 12.0849 7.89144 8.95384 5.25179 9.52521C2.58928 10.0965 2.5093 13.5075 2.8521 15.5244L3.01208 15.8672L3.02351 15.8444L3.18921 15.5187C3.07493 12.7419 4.24049 10.8108 5.87456 10.6622C7.65719 10.5022 8.92558 11.5763 12.2566 14.8903C15.5875 18.2041 17.4787 18.8553 19.2614 18.7925C19.6956 18.7753 20.0669 18.724 20.3755 18.6383Z" fill="url(#paint1_linear_364_9076)"/>
<path d="M7.75971 19.9981C4.24018 19.9409 4.18876 16.8956 4.60013 15.3758C5.04578 17.6212 5.59428 18.5983 7.75971 18.7583C9.49093 18.8897 12.622 17.5812 13.9761 16.9071L15.4501 18.0498C14.0103 18.5354 12.1534 20.0609 7.75971 19.9924V19.9981Z" fill="url(#paint2_linear_364_9076)"/>
<path d="M4.42285 16.7471C4.43428 18.2441 5.13133 19.9581 7.75956 19.9981C11.1306 20.0438 13.016 19.1582 14.3529 18.5183C14.7586 18.3298 15.1186 18.1584 15.45 18.0441L14.5758 17.3755C12.9988 18.1584 10.0222 19.3753 7.79383 19.3753C5.78267 19.3753 4.79995 17.9012 4.42285 16.7471Z" fill="url(#paint3_linear_364_9076)"/>
<path d="M19.8783 14.8845C18.5642 14.7703 16.8502 15.5702 16.1646 15.9757L17.5072 17.1642C17.7586 16.9756 18.5357 16.5928 19.6213 16.5814C20.7182 16.5643 21.1982 17.5527 21.3011 18.0554C22.8779 16.6156 21.5124 15.0273 19.8726 14.8845H19.8783Z" fill="url(#paint4_linear_364_9076)"/>
<path d="M16.7417 16.4843C17.5529 16.1814 19.0214 15.7301 19.9355 15.7987C21.0554 15.8786 21.4781 16.7871 21.4096 17.9526C22.8151 16.5414 21.4724 15.0273 19.8783 14.8845C18.5642 14.7703 16.8502 15.5702 16.1646 15.9757L16.7359 16.4843H16.7417Z" fill="url(#paint5_linear_364_9076)"/>
<defs>
<linearGradient id="paint0_linear_364_9076" x1="2.25118" y1="8.99022" x2="22.4944" y2="15.2199" gradientUnits="userSpaceOnUse">
<stop stop-color="#4EA8E2"/>
<stop offset="0.27" stop-color="#3A6EBF"/>
<stop offset="0.66" stop-color="#563499"/>
<stop offset="1" stop-color="#E21068"/>
</linearGradient>
<linearGradient id="paint1_linear_364_9076" x1="2.77763" y1="8.38487" x2="22.4171" y2="14.8548" gradientUnits="userSpaceOnUse">
<stop stop-color="#81D5DF"/>
<stop offset="0.55" stop-color="#7E88C5"/>
<stop offset="1" stop-color="#D32B9E"/>
</linearGradient>
<linearGradient id="paint2_linear_364_9076" x1="1.99561" y1="9.47844" x2="19.588" y2="10.442" gradientUnits="userSpaceOnUse">
<stop stop-color="#F4F35A"/>
<stop offset="0.43" stop-color="#EF2D8E"/>
<stop offset="1" stop-color="#B039A3"/>
</linearGradient>
<linearGradient id="paint3_linear_364_9076" x1="2.28975" y1="8.806" x2="20.6256" y2="9.07384" gradientUnits="userSpaceOnUse">
<stop stop-color="#F68F2D"/>
<stop offset="0.22" stop-color="#F24F25"/>
<stop offset="0.46" stop-color="#C61367"/>
<stop offset="1" stop-color="#8A1A8E"/>
</linearGradient>
<linearGradient id="paint4_linear_364_9076" x1="4.58538" y1="13.3062" x2="19.1913" y2="15.113" gradientUnits="userSpaceOnUse">
<stop stop-color="#8A1A8E"/>
<stop offset="0.54" stop-color="#EA3734"/>
<stop offset="1" stop-color="#E11169"/>
</linearGradient>
<linearGradient id="paint5_linear_364_9076" x1="16.6676" y1="16.0846" x2="21.9754" y2="17.1759" gradientUnits="userSpaceOnUse">
<stop stop-color="#AE3AA3"/>
<stop offset="0.44" stop-color="#EE2494"/>
<stop offset="1" stop-color="#F9E449"/>
</linearGradient>
</defs>
</svg>

<svg xmlns="http://www.w3.org/2000/svg" width="24" height="24" fill="none" viewBox="0 0 24 24">
    <path fill="#4A9EDC" d="M6 7.428A1.714 1.714 0 1 0 6 4a1.714 1.714 0 0 0 0 3.428"/>
    <path fill="#3C7DC8" d="M6 6.588A.874.874 0 1 0 6 4.84a.874.874 0 0 0 0 1.748"/>
    <path fill="#E93536" d="M20.284 14.285a1.143 1.143 0 1 0 0-2.286 1.143 1.143 0 0 0 0 2.286"/>
    <path fill="#DC1755" d="M20.284 13.725a.583.583 0 1 0 0-1.166.583.583 0 0 0 0 1.166"/>
    <path fill="url(#IBIT__a)" d="M5.315 7.897c-4.777.965-3.36 6.039-2.057 8.456-.412-3.217.828-5.525 2.61-5.69 1.79-.16 3.058.913 6.389 4.227 3.33 3.314 5.222 3.965 7.004 3.903 1.789-.063 2.474-.743 2.343-1.92-.114-.937-1.817-.737-2.651-.514.388 0 1.211.165 1.371.84.171.68-.64.845-1.063.845-2.502-.389-4.668-3.12-8.136-6.925C8.348 8.074 6.417 7.68 5.32 7.897z"/>
    <path fill="url(#IBIT__b)" d="M20.376 18.638c-2.572-.171-3.949-1.2-5.223-2.154-.223-.171-.44-.331-.662-.485-.435-.309-1.034-.966-1.754-1.754-1.977-2.16-4.846-5.291-7.485-4.72-2.663.572-2.743 3.983-2.4 6l.16.342.012-.023.165-.325c-.114-2.777 1.051-4.708 2.686-4.857 1.782-.16 3.05.914 6.382 4.228 3.33 3.314 5.222 3.965 7.004 3.903a5 5 0 0 0 1.114-.155"/>
    <path fill="url(#IBIT__c)" d="M7.76 19.998c-3.52-.057-3.571-3.102-3.16-4.622.446 2.245.994 3.222 3.16 3.382 1.73.132 4.862-1.177 6.216-1.85l1.474 1.142c-1.44.485-3.297 2.01-7.69 1.942z"/>
    <path fill="url(#IBIT__d)" d="M4.423 16.747c.011 1.497.708 3.211 3.337 3.251 3.37.046 5.256-.84 6.593-1.48.406-.188.766-.36 1.097-.474l-.874-.669c-1.577.783-4.554 2-6.782 2-2.011 0-2.994-1.474-3.371-2.628"/>
    <path fill="url(#IBIT__e)" d="M19.878 14.885c-1.314-.115-3.028.685-3.713 1.09l1.342 1.19c.252-.19 1.029-.572 2.114-.584 1.097-.017 1.577.972 1.68 1.474 1.577-1.44.211-3.028-1.428-3.17z"/>
    <path fill="url(#IBIT__f)" d="M16.742 16.484c.81-.303 2.28-.754 3.194-.685 1.12.08 1.542.988 1.474 2.154 1.405-1.412.062-2.926-1.532-3.068-1.314-.115-3.028.685-3.713 1.09l.57.51z"/>
    <defs>
        <linearGradient id="IBIT__a" x1="2.251" x2="22.494" y1="8.99" y2="15.22" gradientUnits="userSpaceOnUse">
            <stop stop-color="#4EA8E2"/>
            <stop offset=".27" stop-color="#3A6EBF"/>
            <stop offset=".66" stop-color="#563499"/>
            <stop offset="1" stop-color="#E21068"/>
        </linearGradient>
        <linearGradient id="IBIT__b" x1="2.778" x2="22.417" y1="8.385" y2="14.855" gradientUnits="userSpaceOnUse">
            <stop stop-color="#81D5DF"/>
            <stop offset=".55" stop-color="#7E88C5"/>
            <stop offset="1" stop-color="#D32B9E"/>
        </linearGradient>
        <linearGradient id="IBIT__c" x1="1.996" x2="19.588" y1="9.478" y2="10.442" gradientUnits="userSpaceOnUse">
            <stop stop-color="#F4F35A"/>
            <stop offset=".43" stop-color="#EF2D8E"/>
            <stop offset="1" stop-color="#B039A3"/>
        </linearGradient>
        <linearGradient id="IBIT__d" x1="2.29" x2="20.626" y1="8.806" y2="9.074" gradientUnits="userSpaceOnUse">
            <stop stop-color="#F68F2D"/>
            <stop offset=".22" stop-color="#F24F25"/>
            <stop offset=".46" stop-color="#C61367"/>
            <stop offset="1" stop-color="#8A1A8E"/>
        </linearGradient>
        <linearGradient id="IBIT__e" x1="4.585" x2="19.191" y1="13.306" y2="15.113" gradientUnits="userSpaceOnUse">
            <stop stop-color="#8A1A8E"/>
            <stop offset=".54" stop-color="#EA3734"/>
            <stop offset="1" stop-color="#E11169"/>
        </linearGradient>
        <linearGradient id="IBIT__f" x1="16.668" x2="21.975" y1="16.085" y2="17.176" gradientUnits="userSpaceOnUse">
            <stop stop-color="#AE3AA3"/>
            <stop offset=".44" stop-color="#EE2494"/>
            <stop offset="1" stop-color="#F9E449"/>
        </linearGradient>
    </defs>
</svg>
